public/avatar/shoe/27.svg

<svg xmlns:xlink="http://www.w3.org/1999/xlink" height="38.3" width="36.05" xmlns="http://www.w3.org/2000/svg"><use height="15.8" transform="translate(9.2 11.95)" width="22.65" xlink:href="#a"/><defs><use height="15.8" width="22.65" xlink:href="#b" id="a"/><g id="b"><path d="m-4.1-4.35.7-.75 1.9-1.2q2.55-1.4 5.7-1.05 1.8.15 3.4 1L10.7.2 9.1 1.95l-.9.55-3.65 1.45Q1.8-3.1-4.1-4.35m-6.25 6.3 3.5-3.55q1.1-.3 2.1.55 1 1.5.7 3-.35 1.5-2.5 1.15l-3.8-1.15" fill="#900" fill-rule="evenodd" transform="translate(11.35 7.9)"/><path d="M4.55 3.95 8.2 2.5l.9-.55L10.7.2q.2 1.9-.05 2.3l-.1.15Q8.7 4.9 2.15 6.55-5.1 8.3-9.9 6.55l-.55-.3q-.35-.35-.1-1.9l.55.3q3.5 1.3 8.4.7l3.65-.7 2.5-.7" fill="#fff" fill-rule="evenodd" transform="translate(11.35 7.9)"/><path d="M-4.1-4.35q5.9 1.25 8.65 8.3l-2.5.7-3.65.7q-4.9.6-8.4-.7l-.55-.3q-.65-1.05.2-2.4l3.8 1.15q2.15.35 2.5-1.15.3-1.5-.7-3-1-.85-2.1-.55l2.75-2.75" fill="#c00" fill-rule="evenodd" transform="translate(11.35 7.9)"/><path d="M-6.85-1.6q1.1-.3 2.1.55" fill="none" stroke="#4d769d" stroke-linecap="round" stroke-linejoin="round" transform="translate(11.35 7.9)"/><path d="M10.7.2 7.6-6.35q-1.6-.85-3.4-1Q1.05-7.7-1.5-6.3l-1.9 1.2-.7.75-2.75 2.75-3.5 3.55q-.85 1.35-.2 2.4-.25 1.55.1 1.9l.55.3q4.8 1.75 12.05 0 6.55-1.65 8.4-3.9l.1-.15q.25-.4.05-2.3" fill="none" stroke="#000" stroke-linecap="round" stroke-linejoin="round" transform="translate(11.35 7.9)"/><path d="M-8.65 1.35q-2.8-4.75 1.7-5.15 1.1 0 1.8 1.2Q-7.3.15-9.2.25q.85.55.55 1.1" fill="#fff" fill-rule="evenodd" transform="translate(11.35 7.9)"/><path d="M-8.65 1.35q.3-.55-.55-1.1 1.9-.1 4.05-2.85Q-3.5 1-8.65 1.35" fill="#98afc0" fill-rule="evenodd" transform="translate(11.35 7.9)"/><path d="M-5.15-2.6q-.7-1.2-1.8-1.2-4.5.4-1.7 5.15Q-3.5 1-5.15-2.6Z" fill="none" stroke="#4d769d" stroke-linecap="round" stroke-linejoin="round" transform="translate(11.35 7.9)"/></g></defs></svg>

<?xml version="1.0" encoding="UTF-8" standalone="no"?>
<svg xmlns:xlink="http://www.w3.org/1999/xlink" height="38.3px" width="36.05px" xmlns="http://www.w3.org/2000/svg">
  <g transform="matrix(1.0, 0.0, 0.0, 1.0, 23.8, 14.85)">
    <use height="15.8" transform="matrix(1.0, 0.0, 0.0, 1.0, -14.6, -2.9)" width="22.65" xlink:href="#sprite0"/>
  </g>
  <defs>
    <g id="sprite0" transform="matrix(1.0, 0.0, 0.0, 1.0, 11.35, 7.9)">
      <use height="15.8" transform="matrix(1.0, 0.0, 0.0, 1.0, -11.35, -7.9)" width="22.65" xlink:href="#shape0"/>
    </g>
    <g id="shape0" transform="matrix(1.0, 0.0, 0.0, 1.0, 11.35, 7.9)">
      <path d="M-4.1 -4.35 L-3.4 -5.1 -1.5 -6.3 Q1.05 -7.7 4.2 -7.35 6.0 -7.2 7.6 -6.35 L10.7 0.2 9.1 1.95 8.2 2.5 4.55 3.95 Q1.8 -3.1 -4.1 -4.35 M-10.35 1.95 L-6.85 -1.6 Q-5.75 -1.9 -4.75 -1.05 -3.75 0.45 -4.05 1.95 -4.4 3.45 -6.55 3.1 L-10.35 1.95" fill="#990000" fill-rule="evenodd" stroke="none"/>
      <path d="M4.55 3.95 L8.2 2.5 9.1 1.95 10.7 0.2 Q10.9 2.1 10.65 2.5 L10.55 2.65 Q8.7 4.9 2.15 6.55 -5.1 8.3 -9.9 6.55 L-10.45 6.25 Q-10.8 5.9 -10.55 4.35 L-10.0 4.65 Q-6.5 5.95 -1.6 5.35 L2.05 4.65 4.55 3.95" fill="#ffffff" fill-rule="evenodd" stroke="none"/>
      <path d="M-4.1 -4.35 Q1.8 -3.1 4.55 3.95 L2.05 4.65 -1.6 5.35 Q-6.5 5.95 -10.0 4.65 L-10.55 4.35 Q-11.2 3.3 -10.35 1.95 L-6.55 3.1 Q-4.4 3.45 -4.05 1.95 -3.75 0.45 -4.75 -1.05 -5.75 -1.9 -6.85 -1.6 L-4.1 -4.35" fill="#cc0000" fill-rule="evenodd" stroke="none"/>
      <path d="M-6.85 -1.6 Q-5.75 -1.9 -4.75 -1.05" fill="none" stroke="#4d769d" stroke-linecap="round" stroke-linejoin="round" stroke-width="1.0"/>
      <path d="M10.7 0.2 L7.6 -6.35 Q6.0 -7.2 4.2 -7.35 1.05 -7.7 -1.5 -6.3 L-3.4 -5.1 -4.1 -4.35 -6.85 -1.6 -10.35 1.95 Q-11.2 3.3 -10.55 4.35 -10.8 5.9 -10.45 6.25 L-9.9 6.55 Q-5.1 8.3 2.15 6.55 8.7 4.9 10.55 2.65 L10.65 2.5 Q10.9 2.1 10.7 0.2" fill="none" stroke="#000000" stroke-linecap="round" stroke-linejoin="round" stroke-width="1.0"/>
      <path d="M-8.65 1.35 Q-11.45 -3.4 -6.95 -3.8 -5.85 -3.8 -5.15 -2.6 -7.3 0.15 -9.2 0.25 -8.35 0.8 -8.65 1.35" fill="#ffffff" fill-rule="evenodd" stroke="none"/>
      <path d="M-8.65 1.35 Q-8.35 0.8 -9.2 0.25 -7.3 0.15 -5.15 -2.6 -3.5 1.0 -8.65 1.35" fill="#98afc0" fill-rule="evenodd" stroke="none"/>
      <path d="M-5.15 -2.6 Q-5.85 -3.8 -6.95 -3.8 -11.45 -3.4 -8.65 1.35 -3.5 1.0 -5.15 -2.6 Z" fill="none" stroke="#4d769d" stroke-linecap="round" stroke-linejoin="round" stroke-width="1.0"/>
    </g>
  </defs>
</svg>
